front/assets/images/test-maturite/niveaux/insuffisant.svg

<svg width="48" height="72" viewBox="0 0 48 72" fill="none" xmlns="http://www.w3.org/2000/svg">
    <path d="M46.4314 29.1408L40.2043 67.4412C32.5593 70.3064 19.503 71.2604 8.53231 68.6452C7.25925 66.6452 0.426812 29.0651 1.03867 28.4894C2.08476 27.5881 37.0035 28.0059 46.4314 29.1375V29.1408Z" fill="#FED980"/>
    <path d="M33.199 7.66906C34.3471 9.38293 34.3109 11.6231 33.778 13.5508C32.5674 18.0279 27.4686 19.7648 23.258 19.7549C19.9059 19.6464 16.238 18.4687 14.1294 15.7285C12.9123 13.9785 12.8136 11.7218 13.2939 9.70202C13.7314 7.67564 15.1426 6.03744 16.794 4.85648C18.4223 3.69855 20.396 2.6097 22.1132 1.72152C22.6724 1.51099 23.1297 0.892548 23.7975 1.12611C24.7646 1.5373 25.6528 2.12285 26.5804 2.61957C28.9654 4.01106 31.5773 5.3532 33.199 7.67235V7.66906Z" fill="#9ACF71"/>
    <path d="M46.4485 28.3967C44.0569 28.0546 41.6654 27.7223 39.264 27.4592C34.6159 26.9789 29.9085 26.6697 25.1814 26.5315C25.0991 24.6828 24.9215 20.8077 24.9084 20.5971C25.0103 20.5873 25.109 20.5741 25.211 20.561C27.1814 20.2945 29.1256 19.6333 30.8 18.551C32.4678 17.472 33.8987 16.0016 34.731 14.1825C35.5271 12.4489 35.7179 10.4521 35.1751 8.61323C34.9711 7.92571 34.6784 7.26122 34.3034 6.64936C34.0435 6.22829 33.7507 5.83355 33.425 5.46183C33.3757 5.40919 33.3264 5.35327 33.2803 5.30064C32.9481 4.85983 32.3296 4.75786 31.8625 4.99471C30.0598 2.99136 24.9972 -0.133732 23.7471 0.00442971C22.4905 0.0307463 18.27 2.67556 16.543 4.83023C16.4871 4.80391 15.487 4.38285 14.9377 5.39932C14.3784 5.78749 13.8949 6.28751 13.5001 6.83687C13.0823 7.42241 12.7238 8.0573 12.4771 8.73495C12.2304 9.41918 12.0461 10.1264 11.9935 10.8534C11.9343 11.6331 11.9771 12.3995 12.135 13.166C12.4343 14.6101 13.1843 15.9325 14.1646 17.0181C15.4344 18.4227 17.1187 19.3997 18.9016 19.9984C20.099 20.3998 21.3622 20.6202 22.6287 20.6761C22.6418 21.3176 22.7932 24.6334 22.8754 26.4789C15.8555 26.3572 8.81249 26.617 1.88794 27.2651C1.73662 27.2782 0.295792 27.3342 0.0786807 27.8934C-0.0496125 28.2256 0.0063102 28.5776 0.0556538 28.9165C0.0885494 29.1599 0.124735 29.4033 0.16421 29.6467C0.276055 30.3573 0.401059 31.0645 0.526062 31.7751C0.84844 33.614 1.18069 35.4495 1.51293 37.2884C2.23335 41.2787 2.96034 45.2689 3.68405 49.2592C4.35183 52.9303 5.01632 56.6015 5.68411 60.2726C6.14794 62.8253 6.58216 65.3846 7.0756 67.934C7.36837 69.4472 8.66775 69.9012 9.61843 70.1512C13.5396 71.0591 17.566 71.398 21.5793 71.5723C26.7999 71.7795 39.3002 70.9802 41.6917 68.4176C41.876 68.2498 42.251 66.5327 42.3497 65.9142C42.8266 62.9273 43.3036 59.9437 43.7806 56.9567C44.3102 53.6409 44.8399 50.3283 45.3662 47.0124C45.8563 43.9366 46.3498 40.8609 46.8235 37.7818C47.057 36.2785 47.2873 34.7752 47.4847 33.2653C47.5899 32.4725 47.682 31.6764 47.761 30.877C47.7873 30.5908 47.8103 30.3047 47.8038 30.0152C47.7939 29.6138 47.8959 28.6039 46.4452 28.3934L46.4485 28.3967ZM32.198 7.61978C32.3428 7.84676 32.4777 8.07703 32.5994 8.32046C32.7112 8.55073 32.8099 8.79087 32.8954 9.03101C32.9678 9.2547 33.0303 9.48497 33.0796 9.71524C33.1257 9.95867 33.1586 10.2021 33.175 10.4488C33.1882 10.7021 33.1849 10.9554 33.1685 11.212C33.1454 11.4686 33.1093 11.7219 33.0566 11.9752C33.0007 12.2219 32.9316 12.462 32.8527 12.6989C32.7474 12.9785 32.6323 13.2515 32.4974 13.5147C32.3625 13.7713 32.2112 14.018 32.05 14.2614C31.9184 14.4489 31.7803 14.6299 31.6355 14.8042L31.5138 14.722C31.4414 14.6726 31.2474 14.5443 31.0533 14.416C30.4085 13.9851 29.6388 13.4719 28.869 12.962C28.2407 12.5443 27.6157 12.1265 26.9874 11.7087C27.9644 11.0376 28.8887 10.2909 29.8098 9.54747C30.6059 8.906 31.4053 8.26454 32.2013 7.62307L32.198 7.61978ZM19.3917 5.05392C20.7306 3.98152 22.1254 2.92886 23.7307 2.26107C25.9314 3.08347 27.8032 4.55061 29.6289 6.03092C29.7638 6.14935 29.8986 6.27435 30.0335 6.40922C29.2769 7.01779 28.517 7.62965 27.7637 8.24151C27.2242 8.67902 26.6913 9.12641 26.1683 9.58695C25.8919 9.83037 25.6189 10.0771 25.3557 10.3337C25.2965 10.3896 25.2406 10.4455 25.1814 10.5014C24.007 9.71853 22.8326 8.9389 21.6583 8.15598C21.6352 8.13954 21.5859 8.10664 21.5365 8.07703L21.4017 7.98822C21.3096 7.929 21.2207 7.8665 21.1286 7.80729L21.1089 7.79413C21.1089 7.79413 21.0925 7.78426 21.0826 7.77768C21.0727 7.7711 21.0596 7.76452 21.0497 7.75466C21.0497 7.75466 21.0497 7.75466 21.0464 7.75466C21.0431 7.75466 21.0464 7.75466 21.0431 7.75466C21.0431 7.75466 21.0398 7.75137 21.0365 7.75137C21.0332 7.75137 21.0299 7.74808 21.0267 7.74479C21.0267 7.74479 21.0234 7.74479 21.0201 7.74479H21.0168C21.0168 7.74479 21.0168 7.73821 21.0135 7.73821C21.0003 7.73163 20.9905 7.72176 20.9773 7.71518C20.8984 7.66255 20.8194 7.60991 20.7405 7.55728C20.7076 7.53754 20.678 7.51452 20.6451 7.49478C20.3589 7.30398 20.0431 7.09345 19.7273 6.88292C19.4937 6.72831 19.2207 6.54738 18.9477 6.36317C18.9477 6.36317 18.9477 6.36317 18.9444 6.35988C18.9213 6.34672 18.8654 6.30724 18.8095 6.27106L18.7108 6.20527C18.7108 6.20527 18.7108 6.20527 18.7075 6.20527C18.6582 6.17237 18.6055 6.13948 18.5529 6.10329L18.4411 6.03092C18.7832 5.63946 19.1056 5.26116 19.395 5.06708L19.3917 5.05392ZM22.3162 18.3569C21.8162 18.3142 21.3161 18.2418 20.8227 18.1464C20.3293 18.0379 19.849 17.903 19.372 17.7385C18.9575 17.5839 18.5562 17.4095 18.1614 17.2122C17.8226 17.0312 17.4904 16.8339 17.1713 16.62C16.8917 16.4227 16.6186 16.2089 16.362 15.9819C16.1416 15.7779 15.9278 15.5641 15.7272 15.3371C15.5495 15.1233 15.3785 14.9029 15.2206 14.6726C15.0725 14.4456 14.9377 14.2088 14.8127 13.9687C14.7041 13.7417 14.6087 13.5114 14.5232 13.2713C14.4442 13.0344 14.3817 12.791 14.3291 12.5443C14.2863 12.3074 14.2534 12.0673 14.237 11.8271C14.2238 11.5706 14.2271 11.314 14.2436 11.0574C14.2666 10.8041 14.3028 10.5541 14.3554 10.3074C14.4146 10.0508 14.487 9.79748 14.5725 9.54747C14.6811 9.24812 14.8094 8.95864 14.9508 8.67574C15.1877 8.21848 15.4673 7.78097 15.7601 7.35662L15.7666 7.34675C15.7831 7.32043 15.8028 7.29083 15.8226 7.26451L15.8555 7.21846C15.8818 7.18227 15.9048 7.1428 15.9311 7.10661C16.5528 7.53754 17.1877 7.95203 17.8193 8.37309C17.9838 8.48494 18.2733 8.67574 18.5628 8.86653C18.7634 9.0014 19.0891 9.21851 19.4148 9.43563L19.4904 9.48497C19.5431 9.52115 19.6582 9.59681 19.7766 9.67576C19.8523 9.72511 19.9247 9.77774 20.0003 9.82708C20.0595 9.86656 20.1352 9.9159 20.2076 9.96525C20.372 10.0738 20.451 10.1297 20.5332 10.1824C21.0332 10.5179 21.6615 10.9324 22.2833 11.3502C24.813 13.0344 27.3459 14.722 29.8789 16.4062C29.8263 16.4424 29.7769 16.4786 29.7243 16.5148C29.3591 16.7549 28.9808 16.972 28.5927 17.1694C28.1321 17.3964 27.6551 17.5938 27.1683 17.7615C26.6518 17.9293 26.1288 18.0707 25.5959 18.1793C25.0695 18.278 24.5366 18.3438 24.0004 18.38C23.4379 18.4096 22.8754 18.4063 22.3162 18.3668V18.3569ZM45.5405 32.0152C45.2379 33.5284 44.9813 35.0515 44.728 36.5746C44.4747 38.0976 44.228 39.6174 43.9813 41.1405C43.4747 44.2886 42.9714 47.44 42.4681 50.5881C41.9516 53.8185 41.4352 57.0489 40.9187 60.2792C40.5535 62.5556 40.1983 64.8353 39.8265 67.1149C35.8199 69.1643 26.8031 69.4966 21.3754 69.2532C17.3325 69.092 13.2995 68.6709 9.36514 67.7169C9.36514 67.684 9.36514 67.6511 9.35856 67.615C8.94078 65.309 8.51972 63.003 8.10194 60.6937C7.43416 57.0192 6.76638 53.3481 6.09859 49.6736C5.37818 45.7097 4.65447 41.7491 3.93077 37.7851C3.5722 35.8147 3.21035 33.8442 2.84521 31.8771C2.6906 31.058 2.53928 30.2422 2.37151 29.4263C16.8522 28.3605 31.4217 28.4197 45.8399 30.627C45.7346 31.0876 45.6359 31.5481 45.5438 32.0087L45.5405 32.0152Z" fill="#0D0C21"/>
</svg>

<svg xmlns="http://www.w3.org/2000/svg" width="48" height="72" fill="none"><path fill="#FED980" d="m46.431 29.14-6.227 38.301c-7.645 2.865-20.701 3.82-31.672 1.204-1.273-2-8.105-39.58-7.493-40.156 1.046-.9 35.965-.483 45.392.648z"/><path fill="#9ACF71" d="M33.199 7.67c1.148 1.713 1.112 3.953.579 5.88-1.21 4.478-6.31 6.215-10.52 6.205-3.352-.109-7.02-1.286-9.129-4.026-1.217-1.75-1.315-4.007-.835-6.027.437-2.026 1.849-3.665 3.5-4.846 1.628-1.157 3.602-2.246 5.32-3.134.558-.211 1.016-.83 1.683-.596.968.411 1.856.997 2.783 1.494 2.385 1.391 4.997 2.733 6.619 5.052z"/><path fill="#0D0C21" d="M46.449 28.397c-2.392-.342-4.784-.675-7.185-.938-4.648-.48-9.356-.79-14.083-.927-.082-1.85-.26-5.724-.273-5.935q.152-.016.303-.036c1.97-.267 3.915-.928 5.589-2.01 1.668-1.079 3.099-2.55 3.931-4.368.796-1.734.987-3.73.444-5.57a8.3 8.3 0 0 0-1.75-3.151L33.28 5.3c-.332-.441-.95-.543-1.418-.306C30.06 2.99 24.998-.134 23.748.005c-1.256.026-5.477 2.67-7.204 4.825-.056-.026-1.056-.447-1.605.57A6 6 0 0 0 13.5 6.836a8 8 0 0 0-1.023 1.898c-.247.684-.43 1.391-.484 2.118a8.3 8.3 0 0 0 .142 2.313c.3 1.444 1.05 2.766 2.03 3.852 1.27 1.405 2.954 2.382 4.737 2.98a13.6 13.6 0 0 0 3.727.678c.013.642.164 3.957.246 5.803a190 190 0 0 0-20.987.786c-.151.013-1.592.07-1.81.628-.128.333-.072.685-.022 1.023q.05.366.108.73c.112.711.237 1.418.362 2.13.322 1.838.655 3.674.987 5.512.72 3.99 1.447 7.98 2.171 11.971l2 11.014c.464 2.552.898 5.112 1.392 7.661.292 1.513 1.592 1.967 2.542 2.217 3.922.908 7.948 1.247 11.961 1.421 5.22.207 17.721-.592 20.113-3.154.184-.168.559-1.885.658-2.504l1.43-8.957q.796-4.972 1.586-9.945c.49-3.075.984-6.151 1.458-9.23.233-1.503.463-3.007.66-4.517a72 72 0 0 0 .277-2.388c.026-.286.05-.572.043-.862-.01-.401.092-1.411-1.359-1.622zM32.198 7.62c.145.227.28.457.401.7.112.23.21.47.296.711q.11.338.185.684.07.365.095.734.019.379-.006.763-.035.384-.112.763a8 8 0 0 1-.204.724 8 8 0 0 1-.356.816 9 9 0 0 1-.447.746q-.198.282-.414.543l-.122-.082-.46-.306c-.645-.43-1.415-.944-2.185-1.454l-1.882-1.253c.977-.671 1.902-1.418 2.823-2.162l2.391-1.924zM19.392 5.054c1.339-1.072 2.733-2.125 4.339-2.793 2.2.822 4.072 2.29 5.898 3.77q.203.176.404.378a612 612 0 0 0-2.27 1.833q-.81.655-1.595 1.345c-.276.243-.55.49-.812.747l-.175.167-3.523-2.345a2 2 0 0 0-.122-.079l-.134-.089c-.092-.059-.181-.122-.273-.18l-.02-.014-.026-.016q-.017-.01-.033-.023h-.007q0-.002-.006-.004-.006 0-.01-.006h-.01s0-.007-.003-.007c-.014-.006-.023-.016-.037-.023l-.236-.158-.096-.062-1.697-1.132-.004-.003c-.023-.013-.079-.053-.134-.089l-.1-.066h-.003l-.154-.102-.112-.072c.342-.392.665-.77.954-.964zm2.924 13.303q-.752-.066-1.493-.21a13 13 0 0 1-1.451-.409 12 12 0 0 1-1.21-.526 12 12 0 0 1-.99-.592 9 9 0 0 1-.81-.638 9 9 0 0 1-.635-.645 9 9 0 0 1-.506-.664 8 8 0 0 1-.408-.704 7 7 0 0 1-.29-.698 7 7 0 0 1-.194-.727 7 7 0 0 1-.092-.717 7 7 0 0 1 .007-.77q.034-.38.111-.75.09-.385.217-.76.165-.447.379-.871c.237-.458.516-.895.81-1.32l.006-.01a1 1 0 0 1 .056-.081l.032-.047q.039-.055.076-.111c.622.43 1.257.845 1.888 1.266.165.112.454.303.744.494l.852.569.075.049.287.19q.111.077.223.152l.208.138c.164.109.243.165.325.217.5.336 1.128.75 1.75 1.168 2.53 1.684 5.063 3.372 7.596 5.056l-.155.109q-.548.36-1.131.654c-.46.227-.938.425-1.425.593-.516.167-1.04.309-1.572.417q-.79.148-1.596.201-.844.045-1.684-.013zm23.225 13.658c-.303 1.513-.56 3.036-.813 4.56s-.5 3.042-.747 4.566q-.759 4.724-1.513 9.447l-1.55 9.691c-.364 2.277-.72 4.556-1.091 6.836-4.007 2.05-13.024 2.382-18.452 2.138-4.043-.161-8.075-.582-12.01-1.536q.002-.049-.006-.102c-.418-2.306-.84-4.612-1.257-6.921l-2.003-11.02Q5.017 43.73 3.93 37.785q-.538-2.956-1.086-5.908c-.154-.819-.306-1.635-.473-2.45 14.48-1.067 29.05-1.007 43.468 1.2q-.158.69-.296 1.382z"/></svg>
